X: 74
T: Festum nunc celebre
N: Derived from Mar2050-Festum_nunc_celebre.krn
C: Johannes Martini
%%abc-version 2.0
%%abcx-abcm2ps-target-version 5.9.1 (29 Sep 2008)
%%abc-creator hum2abc beta
%%abcx-conversion-date 2019/02/17 07:19:42
%%abc-edited-by Jesse Rodin
%%abc-edited-by Chris Gage 08-19-2014
%%abcx-initial-encoding-date 2014/10/06/
%%humdrum-veritas 1184214698
%%humdrum-veritas-data 863465105
%%linebreak <none>
%%barnumbers 0
L: 1/4
M: 4/2
Q: 1/2=120
%%staves [1 2 3 4]
V: 1 clef=treble
V: 2 clef=treble-8
V: 3 clef=treble-8
V: 4 clef=bass
K: C
[V:1] G8 | 
[V:2] z8 | 
[V:3] z8 | 
[V:4] G,3A,B,2C2- | 
[V:1] E4F4 | 
[V:2] z8 | 
[V:3] z8 | 
[V:4] CA,A,4D2- | 
[V:1] E8 | 
[V:2] z8 | 
[V:3] z8 | 
[V:4] D2CB,C4 | 
[V:1] D4G2A2 | 
[V:2] d8 | 
[V:3] z8 | 
[V:4] B,2G,4F,2 | 
[V:1] B2G3FE2 | 
[V:2] B4c4 | 
[V:3] z8 | 
[V:4] G,F,E,D,C,4 | 
[V:1] D2G3FED | 
[V:2] B8 | 
[V:3] G8 | 
[V:4] G,,8 | 
[V:1] C4D4 | 
[V:2] A6d2- | 
[V:3] E4F4 | 
[V:4] A,,4D,4 | 
[V:1] E4G4 | 
[V:2] d2^cB^c3B | 
[V:3] E8 | 
[V:4] z2G,4E,2 | 
[V:1] F3GA2Bc | 
[V:2] d4d4 | 
[V:3] D6G2- | 
[V:4] F,2D,3G,,G,,2 | 
[V:1] d4c4 | 
[V:2] z8 | 
[V:3] G2^FE^F3E | 
[V:4] B,,4A,,4 | 
[V:1] B3cd2cB | 
[V:2] d4d2e2- | 
[V:3] G4G4 | 
[V:4] G,,3A,,B,,2C,2- | 
[V:1] AGG4^F2 | 
[V:2] e2d2c4 | 
[V:3] z8 | 
[V:4] C,2B,,2C,2A,,2 | 
[V:1] G4z4 | 
[V:2] B2d4c2 | 
[V:3] G4G2A2- | 
[V:4] G,,4z4 | 
[V:1] z8 | 
[V:2] B4A4 | 
[V:3] A2G2F4 | 
[V:4] z8 | 
[V:1] z8 | 
[V:2] z2d2e2d2- | 
[V:3] E2G4F2 | 
[V:4] z8 | 
[V:1] G4F4 | 
[V:2] d2^c2d4 | 
[V:3] E4D4 | 
[V:4] z4z2D,2 | 
[V:1] D3EF2G2 | 
[V:2] d4z4 | 
[V:3] z2G2A2G2- | 
[V:4] B,,2G,,2D,2C,B,, | 
[V:1] A2c2B2G2 | 
[V:2] c4e4 | 
[V:3] G2^F2G4 | 
[V:4] A,,4G,,4- | 
[V:1] B4A2B2 | 
[V:2] d8 | 
[V:3] z4F4 | 
[V:4] G,,4D,4 | 
[V:1] c2d2B2c2 | 
[V:2] e2f2g4- | 
[V:3] A4G4- | 
[V:4] A,,2D,2E,2C,2 | 
[V:1] B2c2d4 | 
[V:2] g2e2f4 | 
[V:3] G4A2B2 | 
[V:4] E,4D,4 | 
[V:1] G2c3dcB/A/ | 
[V:2] z2e6- | 
[V:3] c6A2 | 
[V:4] C,8 | 
[V:1] G3F[M:2/1](3A3GE2 | 
[V:2] e2d2e4 | 
[V:3] B4z2A2- | 
[V:4] z4[M:2/1](3A,,3B,,C,2 | 
[V:1] (3:2:5D2C2E2-E2D4 | 
[V:2] z8 | 
[V:3] A6G2 | 
[V:4] (3:2:5D,2A,,2C,2-C,2B,,4 | 
[V:1] [M:4/2]C3DE2F2 | 
[V:2] e6d2- | 
[V:3] A4z4 | 
[V:4] [M:4/2]A,,3B,,C,2D,2 | 
[V:1] G4E4 | 
[V:2] d4c4 | 
[V:3] z4A4- | 
[V:4] G,,4A,,4 | 
[V:1] z2G3FED | 
[V:2] B4c4 | 
[V:3] A2G6 | 
[V:4] E,8 | 
[V:1] F2A3Bc2 | 
[V:2] d2d4c2 | 
[V:3] F4E4 | 
[V:4] D,4A,,4 | 
[V:1] A4z2D2- | 
[V:2] d4d4 | 
[V:3] F4G2G2- | 
[V:4] z2D,2B,,2G,,2 | 
[V:1] DCC2E4 | 
[V:2] z8 | 
[V:3] G2^F2G4 | 
[V:4] A,,4G,,2C,2- | 
[V:1] D4C2F2 | 
[V:2] z8 | 
[V:3] G4z4 | 
[V:4] C,2B,,2C,2D,2 | 
[V:1] E3FG4 | 
[V:2] z4d4- | 
[V:3] G6B2- | 
[V:4] C,3B,,G,,2G,2- | 
[V:1] z8 | 
[V:2] d2f3ea2- | 
[V:3] BAd4c2 | 
[V:4] G,F,D,2A,4 | 
[V:1] z8 | 
[V:2] a2g2a4 | 
[V:3] d4d4 | 
[V:4] B,3A,F,2D,2- | 
[V:1] z8 | 
[V:2] a4a4 | 
[V:3] z8 | 
[V:4] D,2C,2D,C,A,,2 | 
[V:1] z8 | 
[V:2] b2a3gg2- | 
[V:3] d4e2d2- | 
[V:4] G,,2D,2C,2G,2 | 
[V:1] z8 | 
[V:2] g2^f2g4 | 
[V:3] dcc4B2 | 
[V:4] A,4G,4 | 
[V:1] G4F4 | 
[V:2] e4d4 | 
[V:3] c4A4 | 
[V:4] C,4D,4 | 
[V:1] G8 | 
[V:2] d2d3^c^cB | 
[V:3] G4G2G2- | 
[V:4] z4E,4 | 
[V:1] A4B3c | 
[V:2] d4d4 | 
[V:3] G^F^FEG4 | 
[V:4] D,4G,,3A,, | 
[V:1] d2cBA2GF | 
[V:2] z2d2d4 | 
[V:3] G4z4 | 
[V:4] B,,3C,D,2B,,2 | 
[V:1] E4D2B2- | 
[V:2] c4B4 | 
[V:3] z2G2G4 | 
[V:4] C,3B,,G,,4 | 
[V:1] BAA4^G2 | 
[V:2] c2A2B4 | 
[V:3] F4E4 | 
[V:4] z8 | 
[V:1] A4G4 | 
[V:2] A2d4^c2 | 
[V:3] F2D2E4 | 
[V:4] D,2F,2G,2E,2 | 
[V:1] F2G2A3B | 
[V:2] d2e2f4 | 
[V:3] D2G4F2 | 
[V:4] F,2E,2D,4 | 
[V:1] c2A3GG2- | 
[V:2] e4d4- | 
[V:3] G2A2B4 | 
[V:4] C,4G,4 | 
[V:1] G2^F2G2B2- | 
[V:2] d8- | 
[V:3] A4G4- | 
[V:4] D,4G,,2G,,2- | 
[V:1] Bcd2G2B2- | 
[V:2] d4z4 | 
[V:3] G8- | 
[V:4] G,,A,,B,,2C,2B,,2 | 
[V:1] BAd4c2 | 
[V:2] d4e4 | 
[V:3] G4z4 | 
[V:4] G,,2G,4A,2 | 
[V:1] d2B2ABcd | 
[V:2] d8- | 
[V:3] G4A4 | 
[V:4] B,2G,3^F,F,E, | 
[V:1] [B8d8] |]  
[V:2] d8 |]  
[V:3] G8 |]  
[V:4] [G,,8G,8] |]  



